!!!OTL: ZU STRASSBURG AUF DER SCHANZ
!!!ARE: Europa, Mitteleuropa, Deutschland
!!!SCT: E1394
!!!YEM: Copyright 1995, estate of Helmut Schaffrath.
**kern
*ICvox
*Ivox
*M4/4
*k[b-]
*F:
{8f
8g
=1
4a
4a
4a
4a
=2
2g
4r}
{8g
8a
=3
4b-
4b-
8b-
8dd
8cc
8b-
=4
2a
8r}
{8a
8a
8b-
=5
8cc
8cc
8b-
8a
4ff
4dd
=6
4.dd
8cc
4cc}
{4a
=7
8.a
16g
8g
8g
8g
8dd
8cc
8b-
=8
4.b-
8a
4a}
{8f
8a
=9
2cc
2b-
=10
2a
4r}
==
!!!AGN: Staende -, Soldaten - Lied, Deserteur
!!!ONB: ESAC (Essen Associative Code) Database: ERK3
!!!AMT: simple quadruple
!!!AIN: vox
!!!EED: Helmut Schaffrath
!!!EEV: 1.0
*-
